X: 6635
T: Cayim's
R: slide
M: 12/8
K: Gmajor
|:"G" G2 B A2 c BAG B2 d|"C" c2 e d2 B"D" cBA"G" B3|
"C" c2 e d2 f"D" fef"G" g2 e|"G" d2 B c2 A"D" BAF"G" G3:|
|:"D" f2 g a2 f d2 c"G" B2 g|"D" f2 g a2 f d2 c"G" B3|
"Em" g2 a b2 g e2 d"A" ^c3|"Am" cBc"D" def"G" g3 g3:|
|:"Em" B2 A B2 G"Am" F2 c B2 A|"G" B2 A B2 G"B7" ABc def|
"Em" g2 e f2 d"Am" c2 f g2 B|"Em" A2 c B2 G"D" AGF"G" G3:|

